X: 1759
T: the Glories of Spring   #2
R: hornpipe, reel
%S: s:3 b:12(4+4+4)
O: F. O'Neill
B: O'Neill's 1850 #1759
Z: Bob Safranek, rjs@gsp.org
Z: Compacted via repeats and multiple endings [JC]
M: C|
L: 1/8
K: Gm
G,>A, \
| B,4 A,4 | G,>A,B,>C D>GG>A \
| B>GA>^F G>=FD>E | {G}F>EF>D C>A,A,>C |
| (3B,B,B, B,>B, (3A,A,A, A,>A, | G,>A,B,>C D>GG>A \
| B>GA>^F G>=FD>E | {G}F>DC>A, G,2 :|
|::: D>E \
| F>GF>D B,>DF>A | B2 c2 d2 B>c \
| d>^cd>e d>BG>A | B>GA>^F [1,3 G>=F :|[2,4 G2 :|
